assets/imgs/icon-compras-seguras.svg

<svg height="45.335" viewBox="0 0 43.631 45.335" width="43.631" xmlns="http://www.w3.org/2000/svg"><path d="m37.124 41.948h-20.25v-30.168h4.742v4.56a.885.885 0 1 0 1.771 0v-4.56h12.143v4.56a.885.885 0 1 0 1.771 0v-4.56h4.599v9.382h1.771v-10.268a.885.885 0 0 0 -.885-.885h-5.486v-2.209a7.849 7.849 0 0 0 -10.655-7.281 7.849 7.849 0 0 0 -10.657 7.281v2.205h-5.48a.885.885 0 0 0 -.885.885v28.618a4.219 4.219 0 0 0 4.218 4.211h25.959a16.942 16.942 0 0 1 -2.673-1.771zm-7.666-40.177a6.059 6.059 0 0 1 6.072 6.029v2.205h-3.857v-2.205a7.775 7.775 0 0 0 -2.835-6 6.186 6.186 0 0 1 .62-.031zm-2.814.688a6.034 6.034 0 0 1 3.256 5.341v2.205h-6.513v-2.205a6.034 6.034 0 0 1 3.258-5.341zm-8.885 5.341a6.059 6.059 0 0 1 6.072-6.032 6.133 6.133 0 0 1 .62.031 7.775 7.775 0 0 0 -2.835 6v2.205h-3.857zm-2.659 34.148h-1.259a2.446 2.446 0 0 1 -2.447-2.44v-27.728h3.706z" fill="#772ce8" transform="translate(-9.623)"/><path d="m284.924 232.8a6.7 6.7 0 0 1 -6.06-3.817h-3.148a6.727 6.727 0 0 1 -8.853 3.212v11.028c0 8.066 10.427 10.819 10.427 10.819s10.427-2.753 10.427-10.819v-11.023a6.709 6.709 0 0 1 -2.793.6z" fill="#772ce8" transform="translate(-244.086 -208.712)"/><path d="m351.831 340.453a.886.886 0 0 1 -.624-.258l-1.924-1.913a.885.885 0 0 1 1.249-1.256l1.243 1.236 3.225-3.828a.885.885 0 1 1 1.354 1.142l-3.849 4.563a.885.885 0 0 1 -.638.314h-.039z" fill="#fff" transform="translate(-318.97 -304.535)"/></svg>

<svg xmlns="http://www.w3.org/2000/svg" width="43.631" height="45.335" viewBox="0 0 43.631 45.335"><defs><style>.a{fill:#772ce8;}.b{fill:#fff;}</style></defs><g transform="translate(-9.623)"><g transform="translate(9.623 0)"><g transform="translate(0)"><path class="a" d="M37.124,41.948H16.874V11.78h4.742v4.56a.885.885,0,1,0,1.771,0V11.78H35.53v4.56a.885.885,0,1,0,1.771,0V11.78H41.9v9.382h1.771V10.894a.885.885,0,0,0-.885-.885H37.3V7.8A7.849,7.849,0,0,0,26.645.519,7.849,7.849,0,0,0,15.988,7.8v2.205h-5.48a.885.885,0,0,0-.885.885V39.508a4.219,4.219,0,0,0,4.218,4.211H39.8a16.942,16.942,0,0,1-2.673-1.771ZM29.458,1.771A6.059,6.059,0,0,1,35.53,7.8v2.205H31.673V7.8a7.775,7.775,0,0,0-2.835-6,6.186,6.186,0,0,1,.62-.031Zm-2.814.688A6.034,6.034,0,0,1,29.9,7.8v2.205H23.387V7.8A6.034,6.034,0,0,1,26.645,2.459ZM17.759,7.8a6.059,6.059,0,0,1,6.072-6.032,6.133,6.133,0,0,1,.62.031,7.775,7.775,0,0,0-2.835,6v2.205H17.759V7.8ZM15.1,41.948H13.841a2.446,2.446,0,0,1-2.447-2.44V11.78H15.1Z" transform="translate(-9.623 0)"/></g><g transform="translate(22.777 20.276)"><path class="a" d="M284.924,232.8a6.7,6.7,0,0,1-6.06-3.817h-3.148a6.727,6.727,0,0,1-8.853,3.212v11.028c0,8.066,10.427,10.819,10.427,10.819s10.427-2.753,10.427-10.819V232.2A6.709,6.709,0,0,1,284.924,232.8Z" transform="translate(-266.863 -228.988)"/><path class="b" d="M351.831,340.453a.886.886,0,0,1-.624-.258l-1.924-1.913a.885.885,0,0,1,1.249-1.256l1.243,1.236L355,334.434a.885.885,0,1,1,1.354,1.142l-3.849,4.563a.885.885,0,0,1-.638.314h-.039Z" transform="translate(-341.747 -324.811)"/></g></g></g></svg>
